public/logos/header-logo.svg

<svg fill="none" height="48" viewBox="0 0 49 48" width="49" xmlns="http://www.w3.org/2000/svg"><path d="m48.3357 27.0002c0 .8711-.6236 1.5945-1.4472 1.7617-.1176.0233-.2392.035-.3647.035h-6.0513c-1.0039 0-1.8157.805-1.8157 1.8005v6.0005c0 .6222-.3177 1.1667-.8001 1.4933-.1921.1284-.4118.2217-.6471.2722-.1176.0234-.2392.035-.3647.035h-6.0513c-1.0039 0-1.8157.805-1.8157 1.8006v6.0005c0 .9955-.8118 1.8005-1.8158 1.8005h-6.0513c-1.0039 0-1.8157-.805-1.8157-1.8005v-6.0005c0-.9956.8118-1.8006 1.8157-1.8006h6.0513c1.004 0 1.8158-.8049 1.8158-1.8005v-6.0005c0-.9955.8118-1.8005 1.8157-1.8005h6.0513c1.004 0 1.8158-.805 1.8158-1.8005v-7.8011c0-5.2888-4.3139-9.58208-9.6475-9.59763-5.3297.01944-9.6476 4.30883-9.6476 9.59763v7.8011c0 .9955-.8118 1.8005-1.8157 1.8005h-6.0513c-1.004 0-1.81578.805-1.81578 1.8005v15.6021c0 .9955-.8118 1.8005-1.81577 1.8005h-6.05128c-1.003966 0-1.81577-.805-1.81577-1.8005v-15.6021c0-.9955.811804-1.8005 1.81577-1.8005h6.05128c1.00397 0 1.81577-.805 1.81577-1.8005v-7.8361c0-10.58151 8.65138-19.1603 19.32638-19.1603 10.6751 0 19.3265 8.57879 19.3265 19.1642z" fill="#171c1b"/></svg>

<svg width="49" height="48" viewBox="0 0 49 48" fill="none" xmlns="http://www.w3.org/2000/svg">
<g id="Variations=logo-monogram">
<path id="Vector" d="M48.3357 27.0002C48.3357 27.8713 47.7121 28.5947 46.8885 28.7619C46.7709 28.7852 46.6493 28.7969 46.5238 28.7969H40.4725C39.4686 28.7969 38.6568 29.6019 38.6568 30.5974V36.5979C38.6568 37.2201 38.3391 37.7646 37.8567 38.0912C37.6646 38.2196 37.4449 38.3129 37.2096 38.3634C37.092 38.3868 36.9704 38.3984 36.8449 38.3984H30.7936C29.7897 38.3984 28.9779 39.2034 28.9779 40.199V46.1995C28.9779 47.195 28.1661 48 27.1621 48H21.1108C20.1069 48 19.2951 47.195 19.2951 46.1995V40.199C19.2951 39.2034 20.1069 38.3984 21.1108 38.3984H27.1621C28.1661 38.3984 28.9779 37.5935 28.9779 36.5979V30.5974C28.9779 29.6019 29.7897 28.7969 30.7936 28.7969H36.8449C37.8489 28.7969 38.6607 27.9919 38.6607 26.9964V19.1953C38.6607 13.9065 34.3468 9.61322 29.0132 9.59767C23.6835 9.61711 19.3656 13.9065 19.3656 19.1953V26.9964C19.3656 27.9919 18.5538 28.7969 17.5499 28.7969H11.4986C10.4946 28.7969 9.68282 29.6019 9.68282 30.5974V46.1995C9.68282 47.195 8.87102 48 7.86705 48H1.81577C0.811804 48 0 47.195 0 46.1995V30.5974C0 29.6019 0.811804 28.7969 1.81577 28.7969H7.86705C8.87102 28.7969 9.68282 27.9919 9.68282 26.9964V19.1603C9.68282 8.57879 18.3342 0 29.0092 0C39.6843 0 48.3357 8.57879 48.3357 19.1642V27.0002Z" fill="#171C1B"/>
</g>
</svg>
